X:1
T:Glory in the Highest
T:Glory in the Highest
T:James Henry Fillmore, Sr., 1893
T:Public Domain Courtesy of the Cyber Hymnal™
C:James Henry Fillmore, Sr., 1893
Z:Public Domain
Z:Courtesy of the Cyber Hymnal™
%%score ( 1 2 ) ( 3 4 )
L:1/8
Q:1/4=110
M:4/4
K:Eb
V:1 treble 
V:2 treble 
V:3 bass 
V:4 bass 
V:1
|:"^Moderato" [EG][FA] | [GB]2 [^Fe]2 eB[EA][_DG] | [CF]2 [=Ec]2 cAF_E |1 DBBB BAF^F | [EG]6 :|2 %5
 DBBB [DB]2 [B,D]2 || [B,E]6 ||"^Refrain" [DF]2 | [B,D][DB]BB BA[DF]D | EBBB [EB]2 [GB][EG] | %10
 FF[DB][Fd] [Fd][Ec]G=A | [DB]2 [GB][Ac] [GB][FA][EG][FA] | [GB]2 [^Fe]2 eB[EA][_DG] | %13
 [CF]2 [=Ec]2 [Fc][CA]F_E | DBBB [DB]2 [B,D]2 | [B,E]6 |] %16
V:2
|: x2 | x4 G2 x2 | x4 F2 C2 |1 D4 D4 | x6 :|2 D4 x4 || x6 || x2 | x2 D2 D2 x2 | E4 x4 | %10
 D2 x3 E2 x | x8 | x4 G2 x2 | x6 C2 | D4 x4 | x6 |] %16
V:3
|:!mf! [E,B,]2 | B,2 =A,2 B,_DCB, | A,2 [G,B,]2 [F,A,]2 [A,,A,][=A,,_G,] |1 [B,,F,]4 F,2 B,2 | %4
 B,G,B,C B,2 :|2 [B,,F,]4 F,2 A,2 || [E,G,]6 ||!f! [E,G,]2 | [B,,F,]4 F,B,B,A, | %9
 [E,G,]4 [E,G,]2 [E,B,]2 |"^riten." [F,B,]4 =A,2 B,C | [B,,B,]2"^lento" z2 z4"^a tempo" | %12
 [E,B,]2 [E,=A,]2 B,_DCB, | A,2 [G,B,]2 [F,A,]2 [A,,A,][=A,,_G,] | [B,,_F,]4 F,2 A,2 | [E,G,]6 |] %16
V:4
|: x2 | E,4 E,4 | x8 |1 x4 B,,4 | E,6 :|2 x4 B,,4 || x6 || x2 | x4 B,,4 | x8 | x4 F,4 | x8 | %12
 x4 E,2 E,2 | x8 | x4 B,,4 | x6 |] %16

